icon/fa/bus-simple.svg

<svg xmlns="http://www.w3.org/2000/svg" viewBox="0 0 448 512"><!--! Font Awesome Free 6.1.2 by @fontawesome - https://fontawesome.com License - https://fontawesome.com/license/free (Icons: CC BY 4.0, Fonts: SIL OFL 1.1, Code: MIT License) Copyright 2022 Fonticons, Inc.--><path d="M224 0c124.8 0 224 35.2 224 80v336c0 17.7-14.3 32-32 32v32c0 17.7-14.3 32-32 32h-32c-17.7 0-32-14.3-32-32v-32H128v32c0 17.7-14.3 32-32 32H64c-17.67 0-32-14.3-32-32v-32c-17.67 0-32-14.3-32-32V80C0 35.2 99.19 0 224 0zM64 256c0 17.7 14.33 32 32 32h256c17.7 0 32-14.3 32-32V128c0-17.7-14.3-32-32-32H96c-17.67 0-32 14.3-32 32v128zm16 144c17.67 0 32-14.3 32-32s-14.33-32-32-32-32 14.3-32 32 14.33 32 32 32zm288 0c17.7 0 32-14.3 32-32s-14.3-32-32-32-32 14.3-32 32 14.3 32 32 32z"/></svg>

<svg xmlns="http://www.w3.org/2000/svg" viewBox="0 0 448 512" height="1em" width="1em">
<!--! Font Awesome Free 6.1.2 by @fontawesome - https://fontawesome.com License - https://fontawesome.com/license/free (Icons: CC BY 4.0, Fonts: SIL OFL 1.1, Code: MIT License) Copyright 2022 Fonticons, Inc.-->
  <path d="M224 0C348.8 0 448 35.2 448 80V416C448 433.7 433.7 448 416 448V480C416 497.7 401.7 512 384 512H352C334.3 512 320 497.7 320 480V448H128V480C128 497.7 113.7 512 96 512H64C46.33 512 32 497.7 32 480V448C14.33 448 0 433.7 0 416V80C0 35.2 99.19 0 224 0zM64 256C64 273.7 78.33 288 96 288H352C369.7 288 384 273.7 384 256V128C384 110.3 369.7 96 352 96H96C78.33 96 64 110.3 64 128V256zM80 400C97.67 400 112 385.7 112 368C112 350.3 97.67 336 80 336C62.33 336 48 350.3 48 368C48 385.7 62.33 400 80 400zM368 400C385.7 400 400 385.7 400 368C400 350.3 385.7 336 368 336C350.3 336 336 350.3 336 368C336 385.7 350.3 400 368 400z"/>
</svg>
